svg/teams/teamsWaves.svg

<svg viewBox="0 0 1920 1080" xmlns="http://www.w3.org/2000/svg"><path d="M0 634l45.7 6c45.6 6 137 18 228.5 3.2 91.5-14.9 183.1-56.5 274.6-66.7 91.5-10.2 182.9 11.2 274.2 31.7 91.3 20.5 182.7 40.1 274 47.6 91.3 7.5 182.7 2.9 274.2 2.9s183.1 4.6 274.6 4.3c91.5-.3 182.9-5.7 228.5-8.3l45.7-2.7v429H0z" fill="#ffb6b6"/><path d="M0 761l45.7-19c45.6-19 137-57 228.5-79s183.1-28 274.6-20c91.5 8 182.9 30 274.2 52.3 91.3 22.4 182.7 45 274 37.5 91.3-7.5 182.7-45.1 274.2-59 91.5-13.8 183.1-3.8 274.6 9.9 91.5 13.6 182.9 31 228.5 39.6l45.7 8.7v349H0z" fill="#ffc4c3"/><path d="M0 796l45.7 6.8c45.6 6.9 137 20.5 228.5 30.9C365.7 844 457.3 851 548.8 851c91.5 0 182.9-7 274.2-21.7 91.3-14.6 182.7-37 274-51.5 91.3-14.5 182.7-21.1 274.2-20.1s183.1 9.6 274.6 12.8c91.5 3.2 182.9.8 228.5-.3l45.7-1.2v312H0z" fill="#ffd2d1"/><path d="M0 924l45.7-7c45.6-7 137-21 228.5-29s183.1-10 274.6-.7c91.5 9.4 182.9 30 274.2 42.9 91.3 12.8 182.7 17.8 274 15 91.3-2.9 182.7-13.5 274.2-31.9 91.5-18.3 183.1-44.3 274.6-51.8 91.5-7.5 182.9 3.5 228.5 9l45.7 5.5v205H0z" fill="#ffdfdf"/><path d="M0 956l45.7 9.3c45.6 9.4 137 28 228.5 35.4 91.5 7.3 183.1 3.3 274.6-12.9 91.5-16.1 182.9-44.5 274.2-41.3 91.3 3.2 182.7 37.8 274 52.5 91.3 14.7 182.7 9.3 274.2 9.7 91.5.3 183.1 6.3 274.6 9.5 91.5 3.1 182.9 3.5 228.5 3.6l45.7.2v59H0z" fill="#ffeded"/></svg>

<svg id="visual" viewBox="0 0 1920 1080" width="100%" height="100%" xmlns="http://www.w3.org/2000/svg" xmlns:xlink="http://www.w3.org/1999/xlink" version="1.1"><path d="M0 634L45.7 640C91.3 646 182.7 658 274.2 643.2C365.7 628.3 457.3 586.7 548.8 576.5C640.3 566.3 731.7 587.7 823 608.2C914.3 628.7 1005.7 648.3 1097 655.8C1188.3 663.3 1279.7 658.7 1371.2 658.7C1462.7 658.7 1554.3 663.3 1645.8 663C1737.3 662.7 1828.7 657.3 1874.3 654.7L1920 652L1920 1081L1874.3 1081C1828.7 1081 1737.3 1081 1645.8 1081C1554.3 1081 1462.7 1081 1371.2 1081C1279.7 1081 1188.3 1081 1097 1081C1005.7 1081 914.3 1081 823 1081C731.7 1081 640.3 1081 548.8 1081C457.3 1081 365.7 1081 274.2 1081C182.7 1081 91.3 1081 45.7 1081L0 1081Z" fill="#ffb6b6"></path><path d="M0 761L45.7 742C91.3 723 182.7 685 274.2 663C365.7 641 457.3 635 548.8 643C640.3 651 731.7 673 823 695.3C914.3 717.7 1005.7 740.3 1097 732.8C1188.3 725.3 1279.7 687.7 1371.2 673.8C1462.7 660 1554.3 670 1645.8 683.7C1737.3 697.3 1828.7 714.7 1874.3 723.3L1920 732L1920 1081L1874.3 1081C1828.7 1081 1737.3 1081 1645.8 1081C1554.3 1081 1462.7 1081 1371.2 1081C1279.7 1081 1188.3 1081 1097 1081C1005.7 1081 914.3 1081 823 1081C731.7 1081 640.3 1081 548.8 1081C457.3 1081 365.7 1081 274.2 1081C182.7 1081 91.3 1081 45.7 1081L0 1081Z" fill="#ffc4c3"></path><path d="M0 796L45.7 802.8C91.3 809.7 182.7 823.3 274.2 833.7C365.7 844 457.3 851 548.8 851C640.3 851 731.7 844 823 829.3C914.3 814.7 1005.7 792.3 1097 777.8C1188.3 763.3 1279.7 756.7 1371.2 757.7C1462.7 758.7 1554.3 767.3 1645.8 770.5C1737.3 773.7 1828.7 771.3 1874.3 770.2L1920 769L1920 1081L1874.3 1081C1828.7 1081 1737.3 1081 1645.8 1081C1554.3 1081 1462.7 1081 1371.2 1081C1279.7 1081 1188.3 1081 1097 1081C1005.7 1081 914.3 1081 823 1081C731.7 1081 640.3 1081 548.8 1081C457.3 1081 365.7 1081 274.2 1081C182.7 1081 91.3 1081 45.7 1081L0 1081Z" fill="#ffd2d1"></path><path d="M0 924L45.7 917C91.3 910 182.7 896 274.2 888C365.7 880 457.3 878 548.8 887.3C640.3 896.7 731.7 917.3 823 930.2C914.3 943 1005.7 948 1097 945.2C1188.3 942.3 1279.7 931.7 1371.2 913.3C1462.7 895 1554.3 869 1645.8 861.5C1737.3 854 1828.7 865 1874.3 870.5L1920 876L1920 1081L1874.3 1081C1828.7 1081 1737.3 1081 1645.8 1081C1554.3 1081 1462.7 1081 1371.2 1081C1279.7 1081 1188.3 1081 1097 1081C1005.7 1081 914.3 1081 823 1081C731.7 1081 640.3 1081 548.8 1081C457.3 1081 365.7 1081 274.2 1081C182.7 1081 91.3 1081 45.7 1081L0 1081Z" fill="#ffdfdf"></path><path d="M0 956L45.7 965.3C91.3 974.7 182.7 993.3 274.2 1000.7C365.7 1008 457.3 1004 548.8 987.8C640.3 971.7 731.7 943.3 823 946.5C914.3 949.7 1005.7 984.3 1097 999C1188.3 1013.7 1279.7 1008.3 1371.2 1008.7C1462.7 1009 1554.3 1015 1645.8 1018.2C1737.3 1021.3 1828.7 1021.7 1874.3 1021.8L1920 1022L1920 1081L1874.3 1081C1828.7 1081 1737.3 1081 1645.8 1081C1554.3 1081 1462.7 1081 1371.2 1081C1279.7 1081 1188.3 1081 1097 1081C1005.7 1081 914.3 1081 823 1081C731.7 1081 640.3 1081 548.8 1081C457.3 1081 365.7 1081 274.2 1081C182.7 1081 91.3 1081 45.7 1081L0 1081Z" fill="#ffeded"></path></svg>
